public/lock.svg

<svg width="24" height="24" viewBox="0 0 24 24" fill="none" xmlns="http://www.w3.org/2000/svg">
<path d="M6 10V8C6 4.69 7 2 12 2C17 2 18 4.69 18 8V10" stroke="#542CEA" stroke-width="1.5" stroke-linecap="round" stroke-linejoin="round"/>
<path d="M12 18.5C13.3807 18.5 14.5 17.3807 14.5 16C14.5 14.6193 13.3807 13.5 12 13.5C10.6193 13.5 9.5 14.6193 9.5 16C9.5 17.3807 10.6193 18.5 12 18.5Z" stroke="#542CEA" stroke-width="1.5" stroke-linecap="round" stroke-linejoin="round"/>
<path d="M17 22H7C3 22 2 21 2 17V15C2 11 3 10 7 10H17C21 10 22 11 22 15V17C22 21 21 22 17 22Z" stroke="#542CEA" stroke-width="1.5" stroke-linecap="round" stroke-linejoin="round"/>
</svg>

<svg fill="none" height="24" viewBox="0 0 24 24" width="24" xmlns="http://www.w3.org/2000/svg"><g stroke="#542cea" stroke-linecap="round" stroke-linejoin="round" stroke-width="1.5"><path d="m6 10v-2c0-3.31 1-6 6-6s6 2.69 6 6v2"/><path d="m12 18.5c1.3807 0 2.5-1.1193 2.5-2.5s-1.1193-2.5-2.5-2.5-2.5 1.1193-2.5 2.5 1.1193 2.5 2.5 2.5z"/><path d="m17 22h-10c-4 0-5-1-5-5v-2c0-4 1-5 5-5h10c4 0 5 1 5 5v2c0 4-1 5-5 5z"/></g></svg>
